X:137
T:Halblauter Steirer (F.)
C:traditionell
R:Steirer
A:Salzkammergut
B:"Es war einmal einmal ein Dudlsackpfeifer - ausgewaehlte Lieder und Taenze aus Oesterreich, Bayern und dem Egerland fuer Dudelsack(Bock)", R.Lughofer, Volkskultur Niederoesterrich, Moedling 1997,
S:Schwegelschule von Adolf Ruttner
N:im buch in F, teil F
Z:abc transcription Simon Wascher
M:3/4
L:1/8
K:F
V:1
Cx |\
(CE) G3 E | (FA) F3 d | (dB) Ec BE | (FA) CA FC |\
(CE) G3 E | (FA) F3 d | (dB) Ec BE | F2 z2 :|
V:2
Fx |\
(EG) B3 c | (AF) A3 f | (fd) Be dB | (Ac) Fc AF |\
(EG) B3 c | (AF) A3 f | (fd) Be dB | A2 z2 :|
